Obsidian/status/22s/cisco-tray-quarantined.svg

<svg height="22" width="22" xmlns="http://www.w3.org/2000/svg"><path d="m11 3c-2.990275 0-5.5819281 1.6269634-6.9550781 4.0449219 1.165789-.6620476 2.5133531-1.0449219 3.9550781-1.0449219.524759 0 1.0371571.052885 1.5332031.1484375.0018-.00466.0040594-.0090199.0058594-.0136719.109049-.2835808.2336859-.5574434.3730469-.8242187.0129-.024874.0259225-.0494978.0390625-.0742188.1278061-.238484.2674561-.4682357.4179691-.6914062.02988-.044688.05714-.090725.08789-.1347657.151973-.215866.314284-.4236254.486328-.6230468.02804-.032693.053472-.0673834.082032-.0996094.204504-.2295139.419107-.4495692.648437-.6542969-.222608-.018441-.446301-.0332031-.673828-.0332031zm3.226562.6777344c-.289386.1504875-.560133.3292648-.818359.5234375-.06417.047973-.123414.1018974-.185547.1523437-.214183.1751328-.419783.3614803-.607422.5644532-.02986.032021-.060683.0630301-.089843.0957031-.457517.5172888-.829449 1.1116662-1.089844 1.765625 1.846254.8763402 3.283592 2.4434574 4.019531 4.3632811.344008-.081489.692941-.136719 1.044922-.136719.855336 0 1.709715.243764 2.451172.72461.022334-.241775.048828-.482468.048828-.730469 0-3.2816681-1.958742-6.0857175-4.773438-7.3222656zm-6.226562 4.3222656c-2.079471 0-3.9066899 1.0464652-4.9824219 2.644531-.0052.118709-.0175781.235439-.0175781.355469 0 4.432 3.568 8 8 8 .119372 0 .235451-.012448.353516-.017578h.001953c.488328-.328717.924296-.728647 1.294922-1.183594-.464227-.781436-.67047-1.669836-.621094-2.552734-.100444-.078848-.208588-.148249-.304688-.232422-.0031-.0027-.006565-.005113-.009765-.007813-.261357-.229614-.505115-.478562-.734375-.740234-.03115-.0355-.061267-.07137-.091797-.107422-.209976-.248385-.407211-.506126-.585938-.779297-.01292-.01971-.026322-.038764-.039062-.058594-.181167-.282328-.3412513-.57938-.4863282-.884765-.0279501-.05873-.0535282-.118215-.0800782-.177735-.131227-.294674-.2503191-.595729-.3457031-.908203-.0065-.02114-.0151944-.04128-.0214844-.0625-.09544-.322294-.164079-.655937-.21875-.99414-.01282-.07917-.0246662-.158327-.0351562-.238281-.04528-.3456762-.0761719-.696205-.0761719-1.054688 0-.305652.0175413-.6059829.0507812-.9023438-.3415039-.0599379-.6915842-.0976562-1.0507812-.0976562zm3.013672.8125c-.002.06327-.013672.123738-.013672.1875 0 .248781.019648.4918529.048828.7324219.0089.07358.021693.146032.033203.21875.02793.1757201.0627.3493741.105469.5195311.01772.07068.034498.141289.054688.210938.065898.226739.141381.449467.232421.664062.0966.2277.209115.446117.332032.658203.01642.02842.033911.055875.050781.083985.115562.192026.241224.377564.376953.554687.01328.01738.025593.035514.039063.052734.125356.159929.263856.308901.404296.455079.180426-.294869.386146-.577552.640625-.832032.1063-.106299.227755-.185898.341797-.279297-.472783-1.367127-1.414146-2.5115176-2.646484-3.226562zm5.435547 3.1875a3.5 3.5 0 0 0 -2.423828 1.025391 3.5 3.5 0 0 0 0 4.949218 3.5 3.5 0 0 0 4.949218 0 3.5 3.5 0 0 0 0-4.949218 3.5 3.5 0 0 0 -2.52539-1.025391zm.091797 1a2.5 2.5 0 0 1 1.726562.732422 2.5 2.5 0 0 1 .314453 3.142578l-3.460937-3.460938a2.5 2.5 0 0 1 1.419922-.414062zm-2.123047 1.125 3.460937 3.460938a2.5 2.5 0 0 1 -3.146484-.31836 2.5 2.5 0 0 1 -.314453-3.142578z" fill="#d3dae3"/></svg>

<svg xmlns="http://www.w3.org/2000/svg" width="22" height="22" version="1.1">
 <defs>
  <style id="current-color-scheme" type="text/css">
   .ColorScheme-Text { color:#d3dae3; } .ColorScheme-Highlight { color:#5294e2; }
  </style>
 </defs>
 <path style="fill:currentColor" class="ColorScheme-Text" d="M 11 3 C 8.009725 3 5.4180719 4.6269634 4.0449219 7.0449219 C 5.2107109 6.3828743 6.558275 6 8 6 C 8.524759 6 9.0371571 6.052885 9.5332031 6.1484375 C 9.5350031 6.1437775 9.5372625 6.1394176 9.5390625 6.1347656 C 9.6481115 5.8511848 9.7727484 5.5773222 9.9121094 5.3105469 C 9.9250094 5.2856729 9.9380319 5.2610491 9.9511719 5.2363281 C 10.078978 4.9978441 10.218628 4.7680924 10.369141 4.5449219 C 10.399021 4.5002339 10.426281 4.4541969 10.457031 4.4101562 C 10.609004 4.1942902 10.771315 3.9865308 10.943359 3.7871094 C 10.971399 3.7544164 10.996831 3.719726 11.025391 3.6875 C 11.229895 3.4579861 11.444498 3.2379308 11.673828 3.0332031 C 11.45122 3.0147621 11.227527 3 11 3 z M 14.226562 3.6777344 C 13.937176 3.8282219 13.666429 4.0069992 13.408203 4.2011719 C 13.344033 4.2491449 13.284789 4.3030693 13.222656 4.3535156 C 13.008473 4.5286484 12.802873 4.7149959 12.615234 4.9179688 C 12.585374 4.9499898 12.554551 4.9809989 12.525391 5.0136719 C 12.067874 5.5309607 11.695942 6.1253381 11.435547 6.7792969 C 13.281801 7.6556371 14.719139 9.2227543 15.455078 11.142578 C 15.799086 11.061089 16.148019 11.005859 16.5 11.005859 C 17.355336 11.005859 18.209715 11.249623 18.951172 11.730469 C 18.973506 11.488694 19 11.248001 19 11 C 19 7.7183319 17.041258 4.9142825 14.226562 3.6777344 z M 8 8 C 5.920529 8 4.0933101 9.0464652 3.0175781 10.644531 C 3.0123781 10.76324 3 10.87997 3 11 C 3 15.432 6.568 19 11 19 C 11.119372 19 11.235451 18.987552 11.353516 18.982422 L 11.355469 18.982422 C 11.843797 18.653705 12.279765 18.253775 12.650391 17.798828 C 12.186164 17.017392 11.979921 16.128992 12.029297 15.246094 C 11.928853 15.167246 11.820709 15.097845 11.724609 15.013672 C 11.721509 15.010972 11.718044 15.008559 11.714844 15.005859 C 11.453487 14.776245 11.209729 14.527297 10.980469 14.265625 C 10.949319 14.230125 10.919202 14.194255 10.888672 14.158203 C 10.678696 13.909818 10.481461 13.652077 10.302734 13.378906 C 10.289814 13.359196 10.276412 13.340142 10.263672 13.320312 C 10.082505 13.037984 9.9224207 12.740932 9.7773438 12.435547 C 9.7493937 12.376817 9.7238156 12.317332 9.6972656 12.257812 C 9.5660386 11.963138 9.4469465 11.662083 9.3515625 11.349609 C 9.3450625 11.328469 9.3363681 11.308329 9.3300781 11.287109 C 9.2346381 10.964815 9.1659991 10.631172 9.1113281 10.292969 C 9.0985081 10.213799 9.0866619 10.134642 9.0761719 10.054688 C 9.0308919 9.7090118 9 9.358483 9 9 C 9 8.694348 9.0175413 8.3940171 9.0507812 8.0976562 C 8.7092773 8.0377183 8.359197 8 8 8 z M 11.013672 8.8125 C 11.011672 8.87577 11 8.936238 11 9 C 11 9.248781 11.019648 9.4918529 11.048828 9.7324219 C 11.057728 9.8060019 11.070521 9.8784539 11.082031 9.9511719 C 11.109961 10.126892 11.144731 10.300546 11.1875 10.470703 C 11.20522 10.541383 11.221998 10.611992 11.242188 10.681641 C 11.308086 10.90838 11.383569 11.131108 11.474609 11.345703 C 11.571209 11.573403 11.683724 11.79182 11.806641 12.003906 C 11.823061 12.032326 11.840552 12.059781 11.857422 12.087891 C 11.972984 12.279917 12.098646 12.465455 12.234375 12.642578 C 12.247655 12.659958 12.259968 12.678092 12.273438 12.695312 C 12.398794 12.855241 12.537294 13.004213 12.677734 13.150391 C 12.85816 12.855522 13.06388 12.572839 13.318359 12.318359 C 13.424659 12.21206 13.546114 12.132461 13.660156 12.039062 C 13.187373 10.671935 12.24601 9.5275444 11.013672 8.8125 z M 16.449219 12 A 3.5 3.5 0 0 0 14.025391 13.025391 A 3.5 3.5 0 0 0 14.025391 17.974609 A 3.5 3.5 0 0 0 18.974609 17.974609 A 3.5 3.5 0 0 0 18.974609 13.025391 A 3.5 3.5 0 0 0 16.449219 12 z M 16.541016 13 A 2.5 2.5 0 0 1 18.267578 13.732422 A 2.5 2.5 0 0 1 18.582031 16.875 L 15.121094 13.414062 A 2.5 2.5 0 0 1 16.541016 13 z M 14.417969 14.125 L 17.878906 17.585938 A 2.5 2.5 0 0 1 14.732422 17.267578 A 2.5 2.5 0 0 1 14.417969 14.125 z"/>
</svg>
